packages/webapp/public/images/template-logos/wave-accounting.svg

<svg width="62" height="62" viewBox="0 0 62 62" fill="none" xmlns="http://www.w3.org/2000/svg">
<path fill-rule="evenodd" clip-rule="evenodd" d="M12.9986 41.2962C15.4985 42.0921 18.1693 40.8158 18.9338 38.4603L21.7622 29.2965C22.5267 26.9409 21.1068 24.362 18.607 23.566L18.3982 23.4996C15.8984 22.7036 13.2275 23.9797 12.4632 26.3353L9.63477 35.4992C8.87025 37.855 10.2901 40.4337 12.79 41.2298L12.9986 41.2962Z" fill="#084F99"/>
<path fill-rule="evenodd" clip-rule="evenodd" d="M42.8607 15.2484C43.3942 13.9585 44.3807 12.9784 45.5385 12.4496C45.5968 12.4231 45.6543 12.3942 45.7135 12.37C45.7465 12.356 45.7804 12.3445 45.8138 12.3312C46.7687 11.9633 47.8232 11.8979 48.8362 12.2204L49.0449 12.2869C51.5448 13.0828 52.8761 15.9347 52.0033 18.6241C52.0033 18.6241 45.1553 41.7586 45.1494 41.7768C43.3599 47.102 37.6751 49.8591 32.7822 48.475C32.7822 48.475 31.4632 48.0834 30.9192 47.6915C35.7821 46.6465 41.8898 17.5954 42.8607 15.2484Z" fill="#5EB7FF"/>
<path fill-rule="evenodd" clip-rule="evenodd" d="M13.792 44.356C14.8478 44.6921 15.9356 44.713 16.9668 44.4736C17.1308 44.4394 17.2902 44.3933 17.4471 44.3405C19.463 43.7009 21.1959 42.052 21.9309 39.787L27.2669 22.1748C28.1475 19.4987 30.897 17.9589 33.3901 18.7528L33.5988 18.8192C36.0987 19.6153 37.4301 22.467 36.5572 25.1566C36.5572 25.1566 31.4799 41.8458 30.771 43.2339C25.5901 52.6205 15.8581 48.0341 13.1003 44.1061C13.2583 44.1721 13.4172 44.2367 13.5832 44.2895L13.792 44.356Z" fill="#1479FB"/>
</svg>

<svg xmlns="http://www.w3.org/2000/svg" width="62" height="62" fill="none" fill-rule="evenodd"><path d="M12.999 41.296c2.5.796 5.171-.48 5.935-2.836l2.828-9.164c.764-2.356-.655-4.935-3.155-5.731l-.209-.066c-2.5-.796-5.171.48-5.935 2.836l-2.828 9.164c-.765 2.356.655 4.935 3.155 5.731l.209.066z" fill="#084f99"/><path d="M42.861 15.248c.533-1.29 1.52-2.27 2.678-2.799l.175-.08.1-.039c.955-.368 2.009-.433 3.022-.111l.209.066c2.5.796 3.831 3.648 2.958 6.337l-6.854 23.153c-1.789 5.325-7.474 8.082-12.367 6.698 0 0-1.319-.392-1.863-.784 4.863-1.045 10.971-30.096 11.942-32.443z" fill="#5eb7ff"/><path d="M13.792 44.356c1.056.336 2.144.357 3.175.118.164-.034.323-.08.48-.133 2.016-.64 3.749-2.288 4.484-4.553l5.336-17.612c.881-2.676 3.63-4.216 6.123-3.422l.209.066c2.5.796 3.831 3.648 2.958 6.337l-5.786 18.077c-5.181 9.387-14.913 4.8-17.671.872a5.85 5.85 0 0 0 .483.183l.209.067z" fill="#1479fb"/></svg>
